exported-svg/arrow-down-right.svg

<svg height="24" viewBox="0 0 24 24" width="24" xmlns="http://www.w3.org/2000/svg"><path d="m18 17.2928932v-7.7928932c0-.27614237.2238576-.5.5-.5s.5.22385763.5.5v9c0 .2761424-.2238576.5-.5.5h-9c-.27614237 0-.5-.2238576-.5-.5s.22385763-.5.5-.5h7.7928932l-11.14644659-11.14644661c-.19526215-.19526215-.19526215-.51184463 0-.70710678s.51184463-.19526215.70710678 0z"/></svg>

<?xml version="1.0" encoding="UTF-8"?>
<svg width="24px" height="24px" viewBox="0 0 24 24" version="1.1" xmlns="http://www.w3.org/2000/svg" xmlns:xlink="http://www.w3.org/1999/xlink">
    <!-- Generator: Sketch 55.2 (78181) - https://sketchapp.com -->
    <title>arrow-down-right</title>
    <desc>Created with Sketch.</desc>
    <g id="arrow-down-right" stroke="none" stroke-width="1" fill="none" fill-rule="evenodd">
        <path d="M18,17.2928932 L18,9.5 C18,9.22385763 18.2238576,9 18.5,9 C18.7761424,9 19,9.22385763 19,9.5 L19,18.5 C19,18.7761424 18.7761424,19 18.5,19 L9.5,19 C9.22385763,19 9,18.7761424 9,18.5 C9,18.2238576 9.22385763,18 9.5,18 L17.2928932,18 L6.14644661,6.85355339 C5.95118446,6.65829124 5.95118446,6.34170876 6.14644661,6.14644661 C6.34170876,5.95118446 6.65829124,5.95118446 6.85355339,6.14644661 L18,17.2928932 Z" id="Combined-Shape" fill="#000000" fill-rule="nonzero"></path>
    </g>
</svg>
